X: 31714
T: Pasucais De La Villa
R: jig
M: 6/8
K: Dmajor
d3 ded|~c3 cdc|~B3 BAG|FED CDA|
~c3 cdc|~B3 BcB|ABA GFE|1 D3 DFA:|2 DED DA,D||
|:~F3 GFG|A2F FEF|G2E EDE|F2D DA,D|
~F3 GFG|A2F FEF|GAG ECE|1 D3 D3:|2 D3 DFG||
|:AFA GEG|FED DE/F/G|AFA GFE|ABA AFG|
[1 AFA GEG|FED DE/F/G|ABA GFE|~D3 DFG:|
[2 ABc def|gfe dcB|ABA GFE|~D3 D2A||
|:AFA AFA|~G3 GEF|GEF GBA|1 ~F3 F2A:|2 F3-F2F||
|:FDF FDF|G2E ECE|~E3 EDE|F2D D2F|
FDF FDF|G2E ECE|1 ~E3 EFE|D3 DFF:|2 ABA GFE|D3 DFA||

